X: 381
T: Da huache dui
%%abc-version 2.0
%%abcx-abcm2ps-target-version 5.9.1 (29 Sep 2008)
%%abc-creator hum2abc beta
%%abcx-conversion-date 2013/10/02 07:52:30
%%abc-edited-by Helmut Schaffrath
%%humdrum-veritas 3461255489
%%humdrum-veritas-data 208575684
%%continueall 1
%%barnumbers 0
L: 1/8
M: 3/4
K: A
c4 [I:setbarnb 1]| 
c2c e c B | 
[M:2/4]c2c B | 
A3B | 
c2e c | 
B c B A | 
F2A E | 
C4 | 
c2e c | 
B c B A | 
F E F A | 
C4 | 
c2e c | 
B c B A | 
F E F A | 
C4 | 
c4 | 
[M:3/4]c2c e c B | 
[M:2/4]c2c B | 
A3B | 
c c c c | 
B2B F | 
A2G F | 
E FE4 |]  



